X:1
T:4Lieder, Op. 27
T:Cäcilie
T:2. Cäcilie
T:Richard Stauss
T:Heinrich Hart
T:4 Lieder, Op. 27 Für hohe Stimme 
T:OpenScore (CC0)
T:OpenScore (CC0)
T:OpenScore (CC0)
T:OpenScore (CC0)
C:Strauss, Richard
Z:Hart, Heinrich
Z:OpenScore (CC0)
%%score 1 { ( 2 4 6 ) | ( 3 5 7 ) }
L:1/8
Q:1/4=100
M:4/4
K:E
V:1 treble nm="Voice"
V:2 treble nm="Singstimme\nVoice"
V:4 treble 
V:6 treble 
V:3 bass 
V:5 bass 
V:7 bass 
V:1
"^Sehr lebhaft und drängend." z8 | z8 | z8 | z4 z2 (3F G A | B4 F2 z F | G3/2 A/ B2 z G (3G A B | %6
w: |||Wenn du es|wüss- test was|träu- men heisst von bren- nen- den|
 ^B2 c c e2 d c | c4 B B B B | e4 e4 | d3 f f2 G2 | z G =d4 c B | G4 A2 z2 | z2 (3c d e e2 F2 | %13
w: Küs- sen, von Wan- dern und|ru- hen mit der Ge-|lieb- ten|Aug' in Au- ge|und ko- send und|plau- dernd,|wenn du es wüss- test,|
 z d f4 B A | G4 z4 | z2 (3E F =G B2 ^A2 | z =d _B4 A2 | =G4 z2 G2 | _B2 B A A2 =G2 | %19
w: du neig- test dein|Herz!|Wenn du es wüss- test|was ban- gen|heisst in|ein- sa- men Näch- ten|
 z =G =d4 =c d | =B6 B2 | =c6 c2 | =c2 _B2 _d3 c | =c2 B B =d2 =G =F | =F4 E4 | %25
w: und schau- ert vom|Sturm, da|nie- mand|trö- stet mil- den|Mun- des die kampf- mü- de|See- le|
 z2 (3E A B =d2 =c2 | z e =g4 =c B | A4 z4 | z8 | z8 | z2 (3^A B c e2 =G2 | z =d =g6- | %32
w: wenn du es wüss- test,|du kä- mest zu|mir.|||Wenn du es wüss- test,|was le-|
 =g2 f2 =f3 (=G | e4 e3 e | e4 =d4 | =f2 f3 f f2 | =f4 e4) | z =G G4 A B | =c8 | e3 =d d2 =c2 | %40
w: * ben heisst um-|haucht von der|Gott- heit|welt- scha- fen- dem|A- them|zu schwe- ben em-|por|licht- ge- tra- gen|
 z2 =c2 e2 =f =g | a8- | a4 z4 | z8 | z2 c2 d2 e2 | e4 B2 z2 | z2 (3^A B c f2 e2 | z2 e2 (e4- | %48
w: zu se- li- gen|Höh'n|_||wenn du es|wüss- test,|wenn du es wüss- test,|du leb-|
 e4 g4- | g4 b4- | b2) c2 z2 f2 | e6 z2 | z8 | z8 | z8 | !fermata!z8 |] %56
w: ||* test mit|mir!|||||
V:2
!ff! ([gbg']4 [ee']2- (3[ee'][dd'][cc'] | [Be=gb]3 [^A^a] [cegc']4) | %2
 ([e=gbe'] [=d=d']2 [=G=g-] [Bdgb]2 [A=cfa]2 | ^g2- (3gba (3[Bg])G"_dim."E (3([^DF][EG][FA] | %4
 [GB]4 [DF]2) z ([DF] | [EG]>[FA] [GB]4!<(! (3[EG][FA][GB]!<)! | (^B2) c2 e2 dc | c4!p! B4) | %8
 (e6 de | f3 d G2 c2) | ([Ge]2 [F=d]4 [Ec][=DB] | [B,=D^EG]4 (3[A,CFA])(FG (3Ac=e | %12
 [Gc-e-g]4 (3[Fcef])(cd (3ed'c' |!f! [ABdb]4) (f2 [GB][FA]) | %14
!f! ([gbg']4 [ee']2- (3[ee'][dd'][cc'] | [Be=gb]3 [^A^a] [cegc']4) | %16
"_dim." (3[=d_b=d']=gd (3_B=G=D- (3D^DE- (3E^EF | ([_B,-=G]4 (3B,=C^C (3=DFG) | %18
 [=CF]4 (3(_B,C^C (3=DF=G) | ([_B=d]6!<(! [A=c][=Gd]!<)! | [=D-=F=B]4) (3D!>(!(_E=E (3=F_AB)!>)! | %21
 (([=C_A=c]4 (3C)_D=D (3_EAc) | (=c2 _B2 _d3 c) | (3:2:2(=c2 B (3=F=D=C D4 | %24
 [=A,=D=F]4 (3([G,DE])B,^D (3EGB | [EA=ce]4) (3z (EG (3B=ce) | ([=G=ce=g]6 [Ac][GB] | %27
 [=DFA]4) (3z (A,^C (3DFA | =d)(f!f! [=ca]4!<(! [B=d][A=c])!<)! | %29
!ff! ([B=db]4 [=G=g]2- (3[Gg][Ff][Ee] | [=D=d]3 [Cc] [Ee]4) | ([=db=d']4 [B=g-b-]2 (3[gb][fa][eb] | %32
 [B=d=g]4) (3z"_dim." (=GA (3B=c=d) | e8 | (!arpeggio!=e4 =d4) | (!arpeggio!=f4 f4 | (=f4 e4)) | %37
 x8 | x8 | x8 | x4 [Ece]2 [=F=d=f][=Ge=g] | a4 x2 !>![=fa]2- | [fa]2 ([A=fa]4 [^A^f^a]2) | %43
!f! ([Begb]4 [eg-]2 (3gfe | [d=g^ad']4 [cgac']4) | ([Be^gb]4 [eg-]2"_cresc." (3gfe | %46
 (([f^a-c'-f']4 [eac'e']4))) |!ff! ([gbe'g']4 [e-gbe'-]2 (3[ee'][dd'][cc'] | [Bgb]4 [Geg-]2 (3gec | %49
 [GB]2) (6:4:6B,/E/G/B/e/g/ ([gb]4- | [gb]2 [EGc]4 [B,DFB]2) | %51
 [G,B,EG]2[I:staff +1] E,/"_dim."[I:staff -1]G,/B,/E/ G2 (3([DF][EG][FA] | %52
 [GB]4) x2 (3([DF][EG][FA] | [GB]2) x2 G z x2 | G/B/e/g/ [Bb]2 [ee']2 z!ff! !>![gbg'] | %55
 !fermata![G,E]8 |] %56
V:3
!ped! (3(E,,B,,E, (3G,B,E (3GEB,) G, z | (3(E,,C,E, (3=G,^A,C (3EC=G ^A) z | %2
 (3([=D,,=D,]=G,,B,, (3D,=G,B, =D2) (3[^D,^D]A,F,!ped-up! | (3[E,E]G,B, A,2 B, z!p! B,,2 | %4
 (3(E,,B,,E, (3G,[I:staff -1]B,E)[I:staff +1] (3z (A,F, (3D,B,,) z | %5
 (3(E,,B,,E, (3G,B,E (3GEB, G,) z | (3(E,,=G,,^A,, (3C,E,=G, (3^A,CE (3=G^A) z | %7
 (3(D,,F,,B,, (3D,F,B, D2 ^^C2) | E4- ED C2 | (3(^B,,,G,,^B,, (3D,F,G, ^B,2 C2) | %10
 (3(E,,C,E, (3G,B,E"^r. H." (3G)(^E,,B,, (3=D,^E,G,) | (3z (F,,,F,,"^cresc." (3B,,=D,^E, F,4) | %12
 (3([A,,,A,,]E,,A,, (3C,E,F, (3G,A,B, (3CDE) | (3(FB,C (3DEF) z2 B,,2 | %14
 (3(E,,B,,E, (3G,B,E (3GEB, G,) z | (3(E,,C,E, (3=G,^A,B, (3EC=G ^A) z | =D,4- D,4 | %17
!p! (3(=G,,_A,,=A,, (3_B,,=C,^C, =D,4) | (_E,4 =D,4) | %19
 z2 (=C,/_B,,/A,,/F,,/ =G,,/A,,/B,,/=C,/ =D,/E,/F,/=G,/ | !trill(!T_A,3 =G,/=F,/ A,4) | %21
!pp! (3(_A,,_B,,=B,, (3=C,_D,=D, _E,4) | _F,4 (=F,2 =G,2 | _A,2) z2 =F,4 | %24
 (3:2:2(B,,2 =C,"^cresc." (3^C,=D,^D, E,2) z2 | (3([=C,,=C,]=D,^D,"^cresc." (3E,F,G, A,4) | %26
 (3([A,,,A,,]=C,^D, E,A,B, =C^DE) |"^sim." (3([=D,,D,]A,,C, (3D,F,A, =C4) | %28
 z2 (3(=D,,A,,=D, (3F,A,=D F) z | (3([=G,,,=G,,]=D,,G,, (3B,,=D,=G, (3B,=C^C) =D z | %30
 (3([=G,,,=G,,]^A,,C, (3E,=G,^A, (3CA,G, E,) z | %31
 (3([=G,,,=G,,]=D,,G,, (3B,,=D,=G, (3B,=C^C (3=D^DE | (3=F) z =G,, (3=D,=G,B, [=DF]4 | %33
!p! (=C,,/=G,,/=C,/E,/ =G,/=C/[I:staff -1]E/=G/ =c/G/E/[I:staff +1]C/ G,/E,/C,/) z/ | %34
!p! (=C,,/=C,/=F,/A,/ =C/E/[I:staff -1]=F/A/ =d/A/F/=D/[I:staff +1] C/A,/F,/C,/) | %35
 (=C,,/=C,/=F,/A,/ =C/=E/[I:staff -1]=F/A/ =d/B/=G/[I:staff +1]=D/ B,/=G,/=D,/) z/ | %36
 =C,,/=G,,/=C,/=G,/ z/[I:staff -1] (=F/G/c/ e/=c/G/E/[I:staff +1] =C/G,/E,/C,/) | %37
!pp! (B,,,/B,,/E,/=G,/ =C/[I:staff -1]E/=G/=c/ e/c/G/E/[I:staff +1] C/G,/E,/B,,/) | %38
"^cresc." (A,,,/A,,/E,/A,/ =C/[I:staff -1]E/A/=c/ e/c/A/E/[I:staff +1] C/A,/E,/A,,/) | %39
 (=G,,,/=G,,/=G,/_B,/ =C/[I:staff -1]E/_B/=c/ e/c/B/E/[I:staff +1] C/B,/G,/=C,/) | %40
 =C,,/=C,/=G,/_B,/ =C/[I:staff -1]E/=G/=c/-[I:staff +1] x4 | %41
 (=F,,/=C,/=F,/A,/ =C/[I:staff -1]A/=c/=f/ a/f/c/A/[I:staff +1] =F/C/A,/F,/) | %42
 [=C,,=C,]2 (=F4 ^F2) | ([B,,,B,,]E,,/B,,/ E,/G,/B,/E/ G2- (3GFE) | [B,E=G^A]8 | %45
 ([B,,,B,,]E,,/B,,/ E,/G,/B,/E/ G2- (3GFE) | (F6 =G2) | (3([B,,,B,,]E,G, (3B,EG (3BGE (3B,G,E,) | %48
 (3(B,,B,,,B,, (3E,G,B, (3EB,E (3GEC) | B,/B,,/E,/G,/ z2 z2 B2- | ([B,B]2 ^A,4 [B,,=A,]2) | %51
!ped! [E,,E,]E,,/B,,/ x4 ([B,,-A,]2 | %52
 [B,,G,]/)(E,,/B,,/E,/ G,/[I:staff -1]B,/E/G/ B2)[I:staff +1] [B,,A,]2 | %53
 [E,,B,,E,G,]E,,/B,,/ E,/G,/"^cresc."[I:staff -1]B,/E/[I:staff +1] (3z E,,B,, E,/G,/[I:staff -1]B,/E/ | %54
[I:staff +1] z2 ([G,E]2 [B,G]2) z[K:treble] !>![EBe] |[K:bass] !fermata![E,,B,,E,]8!ped-up! |] %56
V:4
 x8 | x8 | x8 | [^GBe]^d (3:2:2=d2 c x4 | x8 | x8 | [=G^A]8 | F4 B2 ^A2 | =A2 GA c2 BA | G4 F2 E2 | %10
 x8 | x8 | x8 | x4 (3dBA D2 | x8 | x8 | x2 _B4 A2 | x8 | (_B3 A) [=DA]2 z2 | x8 | x8 | x8 | %22
 [_D=G]4 _A4 | [=D=F]2 x2 B,3 ^A, | x8 | x8 | x8 | x8 | x8 | x8 | [=G^A]4 x4 | x8 | x8 | %33
 [E=G=c]2 x6 | !arpeggio![EA=c]2 x6 | !arpeggio![=FA=c]2 x6 | [=F=G=c]2 x6 | x8 | x8 | x8 | x8 | %41
 [A=c=f]2 x4 x2 | z4 e4 | x8 | x8 | x8 | x8 | x8 | x8 | x8 | x8 | x6 B,2- | B,2 x4 B,2- | %53
 B,2 x2 x4 | x8 | x8 |] %56
V:5
 x8 | x8 | x8 | x2 (3E^EF =E x3 | x8 | x8 | x8 | x4 D4 | ^C3 B, A,4 | x8 | x8 | x8 | x8 | x8 | x8 | %15
 x8 | x4 (=D>C =C>B,) | x8 | x8 | x8 | x8 | x8 | x8 | x4 =A,,3 ^A,, | B,,4- B,,2 x2 | x8 | x8 | %27
 x8 | x8 | x8 | x8 | x8 | x8 | x8 | x8 | x8 | x2 =C z x4 | x8 | x8 | x8 | x8 | x8 | x2 =C6 | x8 | %44
 x8 | x8 | [CE^A]8 | x8 | x8 | x8 | x8 | x8 | x8 | x8 | x7[K:treble] x |[K:bass] x8 |] %56
V:6
 x8 | x8 | x8 | x8 | x8 | x8 | E4 x4 | x8 | x8 | x8 | x8 | x8 | x8 | x8 | x8 | x8 | x8 | x8 | x8 | %19
 x8 | x8 | x8 | x4 _D2 _E2 | x8 | x8 | x8 | x8 | x8 | x8 | x8 | x8 | x8 | x8 | x8 | x8 | x8 | x8 | %37
 x8 | x8 | x8 | x8 | x8 | x8 | x8 | x8 | x8 | x8 | x8 | x8 | x8 | x8 | x8 | x8 | x8 | x8 | x8 |] %56
V:7
 x8 | x8 | x8 | x8 | x8 | x8 | x8 | x8 | x8 | x8 | x8 | x8 | x8 | x8 | x8 | x8 | x8 | x8 | x8 | %19
 x8 | x8 | x8 | x8 | x8 | x8 | x8 | x8 | x8 | x8 | x8 | x8 | x8 | x8 | x8 | x8 | x8 | x8 | x8 | %38
 x8 | x8 | x8 | x8 | x4 E4 | x8 | x8 | x8 | x8 | x8 | x8 | x8 | x8 | x8 | x8 | x8 | %54
 x7[K:treble] x |[K:bass] x8 |] %56

